icon-themes/sifr_svg/cmd/sc_diamode.svg

<svg viewBox="0 0 16 16" xmlns="http://www.w3.org/2000/svg"><path d="m0 1v7h7v-7zm8 0v7h7v-7zm-6 2h3v3h-3zm8 0h3v3h-3zm-10 6v7h7v-7zm8 0v7h7v-7zm-6 2h3v3h-3zm8 0h3v3h-3z" fill="#555753"/></svg>

<svg xmlns="http://www.w3.org/2000/svg" viewBox="0 0 16 16">
  <path
     style="fill:#555753"
     d="M 0 1 L 0 8 L 7 8 L 7 1 L 0 1 z M 8 1 L 8 8 L 15 8 L 15 1 L 8 1 z M 2 3 L 5 3 L 5 6 L 2 6 L 2 3 z M 10 3 L 13 3 L 13 6 L 10 6 L 10 3 z M 0 9 L 0 16 L 7 16 L 7 9 L 0 9 z M 8 9 L 8 16 L 15 16 L 15 9 L 8 9 z M 2 11 L 5 11 L 5 14 L 2 14 L 2 11 z M 10 11 L 13 11 L 13 14 L 10 14 L 10 11 z "
     />
</svg>
